X:5
T:An Rogaire Dubh
R:jig
C:traditional
O:Irish
D:The Flutes of Old Erin, Viva Voce 002
Z:Paul Stewart Cranford (P.S.C.), <http://www.cranfordpub.com>
Q:288
L:1/8
M:6/8
K:D
d|cAA BGG|cAA A2 d|cAA BAG|FDD D2 d|  
cAA BGG|cAA AGF|GFG BAG|FDD D2:|  
e|fef g2 e|fed cBA|faf gfg|afd dfg|  
agf g2 e|fed cBA|GFG BAG|FDD D2:|
